X: 193
M: C
L: 1/16
K: F
V: 1
(c/d/e) |\
fc3~c3B A2F2F2(Bc) | {Bc}d3BG3F | E2C2C2e2 | fc3!c3B A2F2 F2Bc | d3FE2C2 F4F2 :|
(cB) |\
V: 2 clef=bass middle=d
z2 | f4f4 f4a4 | b4=b4 c'4c4 | f4f4 f4f4 | B4c4 f4F2 :|
z2 | f4F4 B4B4 | f4a4 c'4c4 | f4F4 B4B4 | f4c4 A4f2z2 |
     f4F4 B4B,4 | f4F4 c4C4 | F4B4 c4C4 | B4c4 F4F2 |]


